X: 218
T: 219. O wie selig seid ihr doch, ihr Frommen
N: Derived from chor219.krn
C: Johann Sebastian Bach
%%abc-version 2.0
%%abcx-abcm2ps-target-version 5.9.1 (29 Sep 2008)
%%abc-creator hum2abc beta
%%abcx-conversion-date 2019/03/11 17:28:18
%%abc-edited-by Craig Stuart Sapp
%%humdrum-veritas 1896294185
%%humdrum-veritas-data 2516213673
%%
%%barnumbers 0
L: 1/8
M: C
%%staves [1 2 3 4]
V: 1 clef=treble
V: 2 clef=treble
V: 3 clef=treble-8
V: 4 clef=bass
K: F
[V:1] d2A2c2de | 
[V:2] FGA2E2FG | 
[V:3] A2d2cBA2 | 
[V:4] D,E, F,G, A,G, F,E, | 
[V:1] f2e2d2c2 | 
[V:2] A2A3/G/F2F2 | 
[V:3] d2-dc- cB- BA- | 
[V:4] D,2A,2B,2F,2 | 
[V:1] B4!fermata!A4 | 
[V:2] DB,C2!fermata!C4 | 
[V:3] AG FE!fermata!F4 | 
[V:4] G,2C,2!fermata!F,4 | 
[V:1] f2d2c2AB | 
[V:2] F2FD GEC2 | 
[V:3] cA dBG2FG | 
[V:4] A,F,B,2E,C,F,2- | 
[V:1] c3cA2B2 | 
[V:2] F2E2FA GF- | 
[V:3] A2G2Fcd2 | 
[V:4] F,A,, B,,C, D,C,B,,2 | 
[V:1] G4!fermata!F2A2 | 
[V:2] FE/D/E2!fermata!C2F2- | 
[V:3] cG cB!fermata!A2c2 | 
[V:4] C,2C,,2!fermata!F,,2F,2 | 
[V:1] G2F2E4 | 
[V:2] FE- ED- D^C/=B,/C2 | 
[V:3] c3/B/A2BE AG | 
[V:4] C,2D,2G,,2A,,2 | 
[V:1] !fermata!D4A2c2 | 
[V:2] !fermata!D4=CDE2 | 
[V:3] !fermata!F4F2G2 | 
[V:4] !fermata!B,,4F,2E,2 | 
[V:1] d2A2c2A2 | 
[V:2] FG AF GEF2 | 
[V:3] A2d2c2c2 | 
[V:4] D,E,F,D, E,C,F,E, | 
[V:1] G2F2E4 | 
[V:2] E2D2D2^C2 | 
[V:3] B2AB- BG EA/G/ | 
[V:4] D,^C,D,B,, G,,E,,A,,2 | 
[V:1] !fermata!D8 |]  
[V:2] !fermata!A,8 |]  
[V:3] !fermata!^F8 |]  
[V:4] !fermata!D,,8 |]  



